cloud-circle-outline.svg

<svg fill="currentColor" viewBox="0 0 24 24"><path d="M8.5 16H16q1.25 0 2.13-.87T19 13q0-1.25-.87-2.12T16 10q-.2-1.45-1.32-2.47-1.13-1.03-2.53-1.03-1.27 0-2.31.65T8.3 9q-1.42.13-2.36 1.09T5 12.5 6.03 15q1.02 1 2.47 1m3.5 6q-2.07 0-3.9-.79-1.82-.78-3.17-2.13T2.79 15.9Q2 14.08 2 12t.79-3.9 2.14-3.17T8.1 2.79Q9.93 2 12 2t3.9.79 3.18 2.14 2.13 3.17Q22 9.93 22 12t-.79 3.9q-.78 1.83-2.13 3.18t-3.18 2.13Q14.08 22 12 22m0-2q3.33 0 5.66-2.34Q20 15.33 20 12t-2.34-5.66Q15.33 4 12 4T6.34 6.34Q4 8.68 4 12t2.34 5.66T12 20m-3.5-6q-.62 0-1.06-.44Q7 13.13 7 12.5t.44-1.06Q7.88 11 8.5 11H10v-.5q0-.82.59-1.41T12 8.5t1.41.59.59 1.41V12h2q.43 0 .71.29.29.29.29.71t-.29.71q-.28.29-.71.29m-4-2"/></svg>

<svg  viewBox="0 0 24 24" fill="currentColor"><path  d="M8.5 16H16Q17.25 16 18.13 15.13T19 13Q19 11.75 18.13 10.88T16 10Q15.8 8.55 14.68 7.53 13.55 6.5 12.15 6.5 10.88 6.5 9.84 7.15 8.8 7.8 8.3 9 6.88 9.13 5.94 10.09 5 11.05 5 12.5 5 13.95 6.03 15 7.05 16 8.5 16M12 22Q9.93 22 8.1 21.21 6.28 20.43 4.93 19.08 3.58 17.73 2.79 15.9 2 14.08 2 12T2.79 8.1Q3.58 6.28 4.93 4.93 6.28 3.58 8.1 2.79 9.93 2 12 2T15.9 2.79Q17.73 3.58 19.08 4.93 20.43 6.28 21.21 8.1 22 9.93 22 12T21.21 15.9Q20.43 17.73 19.08 19.08 17.73 20.43 15.9 21.21 14.08 22 12 22M12 20Q15.33 20 17.66 17.66 20 15.33 20 12T17.66 6.34Q15.33 4 12 4T6.34 6.34Q4 8.68 4 12T6.34 17.66Q8.68 20 12 20M8.5 14Q7.88 14 7.44 13.56 7 13.13 7 12.5T7.44 11.44Q7.88 11 8.5 11H10V10.5Q10 9.68 10.59 9.09 11.18 8.5 12 8.5T13.41 9.09Q14 9.68 14 10.5V12H16Q16.43 12 16.71 12.29 17 12.58 17 13T16.71 13.71Q16.43 14 16 14M12 12Z"/></svg>
